X: 46
T: Rip The Calico
M: 4/4
L: 1/8
R: reel
K: D
"D"~d3c defd | ed (3Bcd egfe | ~d2dc defd | efdB "A"A3B :|
"E"dB~BB g2fd | ed (3Bcd egfe | "G"dB~B2 g2fd | efdB A3B :|
"D"faaf "G"gefd | "A"ed (3Bcd egfe | "D"faaf "G"gefd |efdB "A"~A3g |
"D"faaf "G"gefd | "A"ed (3Bcd egfe |"D"fa~a2 "G"b2bf | "A"~e3f g2fe ||

